polaris-icons/icons/new-icons/GlobeMajor.svg

<svg width="20" height="20" viewBox="0 0 20 20" fill="none" xmlns="http://www.w3.org/2000/svg">
<path fill-rule="evenodd" clip-rule="evenodd" d="M10 17.25C14.0041 17.25 17.25 14.0041 17.25 10C17.25 5.99594 14.0041 2.75 10 2.75C5.99594 2.75 2.75 5.99593 2.75 10C2.75 14.0032 5.99447 17.2485 9.99728 17.25L10 17.25ZM10.0013 15.75C10.413 15.7493 10.9171 15.4215 11.3502 14.3214C11.5051 13.9281 11.6347 13.4702 11.7364 12.9606C11.1775 12.987 10.5961 13.0002 10.0001 13.0002C9.40399 13.0002 8.82248 12.987 8.26358 12.9605C8.36526 13.4702 8.49487 13.928 8.64976 14.3214C9.08334 15.4226 9.5881 15.75 10 15.75H10.0013ZM10.0001 11.5002C10.6764 11.5002 11.3281 11.4825 11.9428 11.4479C11.9805 10.9876 12 10.503 12 10C12 9.63936 11.99 9.28818 11.9704 8.94863C11.3406 8.98298 10.6798 9.00017 10 9.00017C9.32024 9.00017 8.65945 8.98298 8.02956 8.94863C8.01001 9.28818 8 9.63936 8 10C8 10.503 8.01946 10.9876 8.05716 11.4479C8.67191 11.4825 9.32362 11.5002 10.0001 11.5002ZM8.18872 7.45498C8.2984 6.77674 8.45386 6.17611 8.64976 5.67857C9.08334 4.57736 9.5881 4.25 10 4.25C10.4119 4.25 10.9167 4.57736 11.3502 5.67857C11.5461 6.17611 11.7016 6.77674 11.8113 7.45498C11.2354 7.48492 10.6283 7.50017 10 7.50017C9.37171 7.50017 8.76466 7.48492 8.18872 7.45498ZM13.4659 8.82788C13.4887 9.21101 13.5 9.60275 13.5 10C13.5 10.4483 13.4856 10.8895 13.4566 11.3193C13.5644 11.3066 13.6704 11.2933 13.7743 11.2793C14.5635 11.1733 15.2063 11.0341 15.6838 10.8755C15.7274 10.59 15.75 10.2977 15.75 10C15.75 9.47199 15.6788 8.9606 15.5456 8.47491C15.0451 8.60012 14.4851 8.6997 13.8885 8.77726C13.7503 8.79522 13.6094 8.81209 13.4659 8.82788ZM14.951 7.07422C14.5846 7.15607 14.1644 7.22876 13.6951 7.28978C13.5698 7.30607 13.4417 7.32144 13.311 7.33588C13.1862 6.51951 12.9988 5.77118 12.746 5.12904C12.715 5.05046 12.6826 4.97237 12.6486 4.89501C13.6048 5.39209 14.4036 6.1499 14.951 7.07422ZM6.68904 7.33587C6.55833 7.32143 6.43025 7.30607 6.30496 7.28978C5.83559 7.22876 5.41545 7.15606 5.04898 7.07421C5.59638 6.14989 6.39525 5.39209 7.35137 4.89501C7.31742 4.97237 7.28499 5.05046 7.25405 5.12904C7.00122 5.77118 6.81379 6.51951 6.68904 7.33587ZM4.45444 8.4749C4.95496 8.60011 5.51495 8.6997 6.11159 8.77726C6.24971 8.79522 6.3906 8.81209 6.53406 8.82788C6.51128 9.211 6.5 9.60275 6.5 10C6.5 10.4483 6.51436 10.8895 6.54341 11.3193C6.4356 11.3066 6.32969 11.2933 6.22576 11.2793C5.4365 11.1733 4.79368 11.0341 4.31622 10.8755C4.27262 10.59 4.25 10.2976 4.25 10C4.25 9.47199 4.32117 8.96059 4.45444 8.4749ZM12.746 14.871C12.9797 14.2772 13.1576 13.5926 13.2817 12.8474C13.5194 12.8232 13.7505 12.796 13.9741 12.766C14.3848 12.7108 14.7783 12.6448 15.1467 12.5668C14.6034 13.654 13.7258 14.545 12.6486 15.105C12.6826 15.0276 12.715 14.9495 12.746 14.871ZM7.35137 15.105C6.27415 14.545 5.39655 13.654 4.85329 12.5668C5.22169 12.6448 5.61526 12.7108 6.02598 12.766C6.24956 12.796 6.4806 12.8232 6.71829 12.8474C6.8424 13.5926 7.02026 14.2772 7.25405 14.871C7.28499 14.9495 7.31742 15.0276 7.35137 15.105Z" fill="#4A4A4A"/>
</svg>

<svg viewBox="0 0 20 20" xmlns="http://www.w3.org/2000/svg"><path fill-rule="evenodd" d="M10 17.25a7.25 7.25 0 1 0 .006-14.5 7.25 7.25 0 0 0-.009 14.5h.003Zm.001-1.5c.412 0 .916-.329 1.35-1.429.154-.393.284-.85.385-1.36a36.907 36.907 0 0 1-3.472 0c.101.51.23.967.386 1.36.433 1.102.938 1.429 1.35 1.429h.001Zm0-4.25c.675 0 1.327-.018 1.942-.052a18.268 18.268 0 0 0 .028-2.5c-.63.035-1.291.052-1.971.052-.68 0-1.34-.017-1.97-.051a18.314 18.314 0 0 0 .027 2.499c.615.034 1.267.052 1.943.052Zm-1.812-4.045c.11-.678.265-1.279.46-1.776.434-1.102.94-1.429 1.351-1.429.412 0 .917.327 1.35 1.429.196.497.352 1.098.461 1.776a35.02 35.02 0 0 1-1.811.045c-.628 0-1.235-.015-1.811-.045Zm5.277 1.373a19.758 19.758 0 0 1-.01 2.491c.108-.012.214-.026.318-.04.79-.106 1.432-.245 1.91-.403a5.796 5.796 0 0 0-.138-2.401c-.5.125-1.06.225-1.657.302-.139.018-.28.035-.423.05Zm1.485-1.754c-.366.082-.787.155-1.256.216-.125.016-.253.031-.384.046-.125-.816-.312-1.565-.565-2.207a6.615 6.615 0 0 0-.097-.234 5.776 5.776 0 0 1 2.302 2.18Zm-8.262.262a20.09 20.09 0 0 1-.384-.046c-.47-.061-.89-.134-1.256-.216a5.777 5.777 0 0 1 2.302-2.179 6.594 6.594 0 0 0-.097.234c-.253.642-.44 1.39-.565 2.207Zm-2.235 1.139c.501.125 1.061.225 1.658.302.138.018.279.035.422.05a19.775 19.775 0 0 0 .01 2.492 19.253 19.253 0 0 1-.318-.04c-.79-.106-1.432-.245-1.91-.403a5.797 5.797 0 0 1 .138-2.401Zm8.292 6.396c.234-.594.412-1.278.536-2.024.237-.024.469-.051.692-.081.41-.055.804-.121 1.173-.2a5.775 5.775 0 0 1-2.498 2.539c.034-.077.066-.155.097-.234Zm-5.395.234a5.775 5.775 0 0 1-2.498-2.538c.369.078.762.144 1.173.199.224.03.455.057.692.081.124.746.302 1.43.536 2.024.031.079.063.157.097.234Z" fill="#5C5F62"/></svg>
